X:6789
T: The Foggy Dew
O:england
C:Irish Trad. (?)
N:March Tempo
M:Cs
K:Em
Bd || e2 dB | e2 dB | A2B2 | D2 EF |GB AG | E2D2 |E4-|E2 Bd|
e2 dB | e2 dB | A2 B2 |D2 EF|GB AG | E2D2 |E4-|E2 F2|
G2B2 | d2 cB | A2A2 |B2 GA|B2 gf | ed Bd | e4-|e2 Bd|
e2 dB | e2 dB | A2 B2 |D2 EF|GB AG | E2E2 | E4||


